dist/img/svg/email-icon.svg

<svg width="40" height="40" viewBox="0 0 40 40" fill="none" xmlns="http://www.w3.org/2000/svg">
<path d="M8.33301 8.33333H29.9997C31.3258 8.33333 32.5975 8.86011 33.5352 9.79779C34.4729 10.7355 34.9997 12.0072 34.9997 13.3333V28.3333C34.9997 29.6594 34.4729 30.9312 33.5352 31.8689C32.5975 32.8065 31.3258 33.3333 29.9997 33.3333H8.33301C7.00693 33.3333 5.73516 32.8065 4.79747 31.8689C3.85979 30.9312 3.33301 29.6594 3.33301 28.3333V13.3333C3.33301 12.0072 3.85979 10.7355 4.79747 9.79779C5.73516 8.86011 7.00693 8.33333 8.33301 8.33333ZM8.33301 9.99999C7.51967 9.99999 6.77301 10.2917 6.19467 10.7767L19.1663 19.2L32.138 10.7767C31.5389 10.274 30.7817 9.99897 29.9997 9.99999H8.33301ZM19.1663 21.1867L5.22301 12.1333C5.07515 12.5161 4.99943 12.923 4.99967 13.3333V28.3333C4.99967 29.2174 5.35086 30.0652 5.97599 30.6903C6.60111 31.3155 7.44895 31.6667 8.33301 31.6667H29.9997C30.8837 31.6667 31.7316 31.3155 32.3567 30.6903C32.9818 30.0652 33.333 29.2174 33.333 28.3333V13.3333C33.333 12.91 33.2547 12.505 33.1097 12.1333L19.1663 21.185V21.1867Z" fill="white"/>
</svg>

<svg width="40" height="40" viewBox="0 0 40 40" fill="none" xmlns="http://www.w3.org/2000/svg"><path d="M8.333 8.333H30a5 5 0 015 5v15a5 5 0 01-5 5H8.333a5 5 0 01-5-5v-15a5 5 0 015-5zm0 1.667c-.813 0-1.56.292-2.138.777L19.166 19.2l12.972-8.423A3.32 3.32 0 0030 10H8.333zm10.833 11.187L5.223 12.133c-.148.383-.224.79-.223 1.2v15a3.333 3.333 0 003.333 3.334H30a3.333 3.333 0 003.333-3.334v-15c0-.423-.078-.828-.223-1.2l-13.944 9.052v.002z" fill="#fff"/></svg>
